inst/assets/svg/wi-hurricane.svg

<?xml version="1.0" encoding="UTF-8"?>
<svg xmlns="http://www.w3.org/2000/svg" xmlns:xlink="http://www.w3.org/1999/xlink" width="30pt" height="30pt" viewBox="0 0 30 30" version="1.1">
<g id="surface286">
<path style=" stroke:none;fill-rule:nonzero;fill:rgb(0%,0%,0%);fill-opacity:1;" d="M 11.078125 14.53125 L 11.078125 14.511719 C 11.070313 14.429688 11.078125 14.308594 11.078125 14.140625 C 11.089844 13.980469 11.121094 13.710938 11.179688 13.328125 C 11.238281 12.949219 11.320313 12.570313 11.429688 12.179688 C 11.539063 11.789063 11.710938 11.339844 11.941406 10.828125 C 12.171875 10.320313 12.441406 9.839844 12.761719 9.390625 C 13.078125 8.941406 13.5 8.46875 14.019531 8 C 14.539063 7.53125 15.121094 7.109375 15.75 6.761719 C 15.910156 6.671875 16.070313 6.648438 16.238281 6.699219 C 16.410156 6.75 16.539063 6.851563 16.621094 7.011719 C 16.710938 7.171875 16.730469 7.328125 16.679688 7.511719 C 16.628906 7.679688 16.53125 7.820313 16.378906 7.898438 C 15.070313 8.621094 14.058594 9.628906 13.351563 10.949219 C 13.890625 10.699219 14.429688 10.570313 14.980469 10.570313 C 16.050781 10.570313 16.980469 10.949219 17.75 11.71875 C 18.519531 12.488281 18.898438 13.410156 18.898438 14.480469 C 18.898438 14.558594 18.898438 14.640625 18.898438 14.71875 C 18.898438 14.800781 18.878906 14.96875 18.859375 15.238281 C 18.839844 15.511719 18.800781 15.761719 18.75 16.011719 C 18.699219 16.261719 18.621094 16.570313 18.519531 16.941406 C 18.410156 17.308594 18.289063 17.671875 18.140625 18 C 17.988281 18.328125 17.800781 18.699219 17.558594 19.101563 C 17.320313 19.5 17.050781 19.871094 16.75 20.21875 C 16.449219 20.570313 16.089844 20.921875 15.671875 21.269531 C 15.238281 21.621094 14.78125 21.941406 14.28125 22.21875 C 14.191406 22.28125 14.078125 22.300781 13.96875 22.300781 C 13.710938 22.300781 13.519531 22.179688 13.390625 21.949219 C 13.300781 21.789063 13.28125 21.628906 13.328125 21.460938 C 13.378906 21.289063 13.480469 21.160156 13.640625 21.078125 C 14.980469 20.328125 16 19.300781 16.699219 18 C 16.160156 18.261719 15.589844 18.378906 14.988281 18.378906 C 14.300781 18.378906 13.648438 18.210938 13.050781 17.859375 C 12.449219 17.519531 11.980469 17.050781 11.621094 16.449219 C 11.269531 15.871094 11.089844 15.230469 11.078125 14.53125 Z M 12.78125 14.480469 C 12.78125 15.089844 13 15.609375 13.429688 16.050781 C 13.859375 16.480469 14.378906 16.699219 14.988281 16.699219 C 15.558594 16.699219 16.050781 16.511719 16.480469 16.128906 C 16.898438 15.75 17.140625 15.28125 17.210938 14.71875 L 17.21875 14.488281 C 17.21875 14.46875 17.21875 14.449219 17.230469 14.441406 C 17.21875 13.839844 17 13.328125 16.570313 12.921875 C 16.140625 12.5 15.609375 12.300781 15 12.300781 C 14.441406 12.300781 13.960938 12.480469 13.539063 12.839844 C 13.121094 13.199219 12.878906 13.660156 12.808594 14.199219 L 12.789063 14.449219 L 12.789063 14.480469 Z M 12.78125 14.480469 "/>
</g>
</svg>

<?xml version="1.0" encoding="utf-8"?>
<!-- Generator: Adobe Illustrator 22.0.1, SVG Export Plug-In . SVG Version: 6.00 Build 0)  -->
<svg version="1.1" id="Layer_1" xmlns="http://www.w3.org/2000/svg" xmlns:xlink="http://www.w3.org/1999/xlink" x="0px" y="0px"
	 viewBox="0 0 30 30" style="enable-background:new 0 0 30 30;" xml:space="preserve">
<path d="M11.08,14.53v-0.02c-0.01-0.08,0-0.2,0-0.37c0.01-0.16,0.04-0.43,0.1-0.81c0.06-0.38,0.14-0.76,0.25-1.15
	s0.28-0.84,0.51-1.35c0.23-0.51,0.5-0.99,0.82-1.44C13.08,8.94,13.5,8.47,14.02,8c0.52-0.47,1.1-0.89,1.73-1.24
	c0.16-0.09,0.32-0.11,0.49-0.06s0.3,0.15,0.38,0.31c0.09,0.16,0.11,0.32,0.06,0.5c-0.05,0.17-0.15,0.31-0.3,0.39
	c-1.31,0.72-2.32,1.73-3.03,3.05c0.54-0.25,1.08-0.38,1.63-0.38c1.07,0,2,0.38,2.77,1.15c0.77,0.77,1.15,1.69,1.15,2.76
	c0,0.08,0,0.16,0,0.24c0,0.08-0.02,0.25-0.04,0.52c-0.02,0.27-0.06,0.52-0.11,0.77c-0.05,0.25-0.13,0.56-0.23,0.93
	c-0.11,0.37-0.23,0.73-0.38,1.06c-0.15,0.33-0.34,0.7-0.58,1.1s-0.51,0.77-0.81,1.12c-0.3,0.35-0.66,0.7-1.08,1.05
	c-0.43,0.35-0.89,0.67-1.39,0.95c-0.09,0.06-0.2,0.08-0.31,0.08c-0.26,0-0.45-0.12-0.58-0.35c-0.09-0.16-0.11-0.32-0.06-0.49
	c0.05-0.17,0.15-0.3,0.31-0.38c1.34-0.75,2.36-1.78,3.06-3.08c-0.54,0.26-1.11,0.38-1.71,0.38c-0.69,0-1.34-0.17-1.94-0.52
	c-0.6-0.34-1.07-0.81-1.43-1.41C11.27,15.87,11.09,15.23,11.08,14.53z M12.78,14.48c0,0.61,0.22,1.13,0.65,1.57
	c0.43,0.43,0.95,0.65,1.56,0.65c0.57,0,1.06-0.19,1.49-0.57c0.42-0.38,0.66-0.85,0.73-1.41l0.01-0.23c0-0.02,0-0.04,0.01-0.05
	c-0.01-0.6-0.23-1.11-0.66-1.52c-0.43-0.42-0.96-0.62-1.57-0.62c-0.56,0-1.04,0.18-1.46,0.54s-0.66,0.82-0.73,1.36l-0.02,0.25V14.48
	z"/>
</svg>
